Bloom-Colors/scalable/apps/workspace-switcher-symbolic.svg

<svg width="16" height="16" version="1.1" xmlns="http://www.w3.org/2000/svg">
<path d="m1 2c-0.554 0-1 0.446-1 1v6c0 0.554 0.446 1 1 1h8c0.554 0 1-0.446 1-1v-6c0-0.554-0.446-1-1-1h-8zm1 2h6v4h-6v-4zm9 0v5c0 1.0907-0.9093 2-2 2h-6v2.5c0 0.831 0.669 1.5 1.5 1.5h10c0.831 0 1.5-0.669 1.5-1.5v-8c0-0.831-0.669-1.5-1.5-1.5h-3.5z" fill="#666"/>
</svg>

<svg xmlns="http://www.w3.org/2000/svg" width="16" height="16" version="1.1">
 <path style="fill:#444444" d="M 1 2 C 0.446 2 0 2.446 0 3 L 0 9 C 0 9.554 0.446 10 1 10 L 9 10 C 9.554 10 10 9.554 10 9 L 10 3 C 10 2.446 9.554 2 9 2 L 1 2 z M 2 4 L 8 4 L 8 8 L 2 8 L 2 4 z M 11 4 L 11 9 C 11 10.090703 10.090703 11 9 11 L 3 11 L 3 13.5 C 3 14.331 3.669 15 4.5 15 L 14.5 15 C 15.331 15 16 14.331 16 13.5 L 16 5.5 C 16 4.669 15.331 4 14.5 4 L 11 4 z"/>
</svg>
